packages/core/src/svgs/vidya.svg

<svg width="24" height="24" viewBox="0 0 24 24" fill="none" xmlns="http://www.w3.org/2000/svg">
<g clip-path="url(#clip0_31_20414)">
<path d="M0 0H24V24H0V0Z" fill="#2F0E4D"/>
<path d="M11.9314 16.1442L11.9785 15.8571C11.9957 15.7671 12 15.6685 12 15.5656V6.06849C12 5.83706 11.9828 5.60563 12 5.37849C12.0085 5.2842 11.9743 5.21992 11.8928 5.18563C11.9443 5.14277 11.9914 5.1342 12.03 5.15134L17.9957 7.78277C18.0085 7.79134 18.0128 7.79992 18.0043 7.81277L12.0214 16.2128C12.0128 16.2256 12 16.2299 11.9871 16.2213C11.9614 16.2128 11.9443 16.1871 11.9314 16.1442Z" fill="#C474E7"/>
<path d="M11.8929 5.18555C11.9743 5.21983 12.0086 5.28412 12 5.3784V15.5655C12 15.6684 11.9957 15.767 11.9786 15.857L11.9315 16.1441L5.99146 7.80412C5.99048 7.80134 5.99048 7.79832 5.99146 7.79555V7.79126L11.8929 5.18555Z" fill="#AC8BFE"/>
<path d="M12.0001 17.1559V19.2987C12.0001 19.4316 12.0129 19.5388 12.0601 19.6159C12.0515 19.663 12.0344 19.693 12.0129 19.7102C11.9958 19.7188 11.9829 19.7188 11.9744 19.7016C9.70076 15.7061 7.42505 11.7118 5.14722 7.71875H5.16007L12.0001 17.1602V17.1559Z" fill="#93D0FE"/>
<path d="M12.0599 19.6159C12.0083 19.5186 11.9859 19.4084 11.9956 19.2987C12.0085 18.913 12.0085 18.1973 11.9956 17.1559C14.2799 14.0145 16.5556 10.873 18.8313 7.72732C18.8356 7.71874 18.8442 7.71874 18.8485 7.72303C18.857 7.72303 18.857 7.7316 18.8527 7.74017L12.2142 19.3759C12.1713 19.4616 12.1156 19.543 12.0642 19.6159H12.0599Z" fill="#8694E8"/>
</g>
<defs>
<clipPath id="clip0_31_20414">
<rect width="24" height="24" fill="white"/>
</clipPath>
</defs>
</svg>

<svg xmlns="http://www.w3.org/2000/svg" width="24" height="24" fill="none" viewBox="0 0 24 24"><g clip-path="url(#a)"><path fill="#2F0E4D" d="M0 0h24v24H0z"/><path fill="#C474E7" d="m11.931 16.144.048-.287c.017-.09.021-.188.021-.291V6.068c0-.23-.017-.462 0-.69q.013-.141-.107-.192c.051-.043.098-.052.137-.035l5.966 2.632q.02.011.008.03l-5.983 8.4q-.013.02-.034.008-.038-.012-.056-.077"/><path fill="#AC8BFE" d="M11.893 5.186q.121.051.107.192v10.188c0 .102-.004.201-.021.291l-.047.287-5.94-8.34v-.013z"/><path fill="#93D0FE" d="M12 17.156v2.143c0 .133.013.24.06.317q-.014.07-.047.094-.025.015-.039-.008-3.41-5.994-6.827-11.983h.013L12 17.16z"/><path fill="#8694E8" d="M12.06 19.616a.57.57 0 0 1-.064-.317q.018-.58 0-2.143a4771 4771 0 0 0 6.835-9.429q.009-.011.018-.004c.008 0 .008.009.004.017l-6.639 11.636a2 2 0 0 1-.15.24z"/></g><defs><clipPath id="a"><path fill="#fff" d="M0 0h24v24H0z"/></clipPath></defs></svg>
